X:1
T:The High Drive
R:reel
M:4/4
L:1/8
K:D
|:~d2de fedA|AB~B2 gBdB|~A2AA fedf|eA~A2 afge|
|~d2de fedA|AB~B2 gBdB|~A2AB defd|1 edce d2 (3ABc:|2 edce defg|]
|~a2^gb ~a2fd|GBdB gBdB|~A2AB defd|eA~A2 efge|
|~a2^gb ~a2fd|GBdB gBdB|~A2AB defd|edce defg|
|~a2^gb ~a2fd|GBdB gBdB|~A2AB defd|eA~A2 efge|
|~d'2d'b ~a2fd|GBdB gBdB|~A2AB defd|edce d2 (3ABc|